icons-dark/apps/48/gparted.svg

<?xml version="1.0" encoding="UTF-8" standalone="no"?>

<!-- Created with Inkscape (http://www.inkscape.org/) -->
<svg width="48" version="1.1" xmlns="http://www.w3.org/2000/svg" height="48" xmlns:xlink="http://www.w3.org/1999/xlink" xmlns:inkscape="http://www.inkscape.org/namespaces/inkscape">
 <defs id="defs5455">
  <linearGradient inkscape:collect="always" id="linearGradient4221">
   <stop style="stop-color:#06a370" id="stop4223"/>
   <stop offset="1" style="stop-color:#22d1b0" id="stop4225"/>
  </linearGradient>
  <linearGradient inkscape:collect="always" id="linearGradient4213">
   <stop style="stop-color:#728790" id="stop4215"/>
   <stop offset="1" style="stop-color:#85969e" id="stop4217"/>
  </linearGradient>
  <linearGradient inkscape:collect="always" xlink:href="#linearGradient4213" id="linearGradient4219" y1="41" y2="7" x2="0" gradientUnits="userSpaceOnUse"/>
  <linearGradient inkscape:collect="always" xlink:href="#linearGradient4221" id="linearGradient4227" y1="36" y2="12" x2="0" gradientUnits="userSpaceOnUse"/>
  <linearGradient inkscape:collect="always" xlink:href="#linearGradient4271" id="linearGradient4235" y1="44" y2="4" x2="0" gradientUnits="userSpaceOnUse"/>
  <linearGradient inkscape:collect="always" xlink:href="#linearGradient4400" id="linearGradient4265" y1="15" x1="15" y2="43.999973" x2="44" gradientUnits="userSpaceOnUse"/>
  <linearGradient inkscape:collect="always" id="linearGradient4400">
   <stop style="stop-color:#020303" id="stop4402"/>
   <stop offset="1" style="stop-color:#424649;stop-opacity:0" id="stop4404"/>
  </linearGradient>
  <linearGradient inkscape:collect="always" id="linearGradient4271">
   <stop style="stop-color:#2a2c2f" id="stop4273"/>
   <stop offset="1" style="stop-color:#424649" id="stop4275"/>
  </linearGradient>
 </defs>
 <metadata id="metadata5458"/>
 <g inkscape:label="Capa 1" inkscape:groupmode="layer" id="layer1" transform="matrix(1 0 0 1 -384.57143 -499.798)">
  <path style="stroke-opacity:0.550265;fill:url(#linearGradient4235);stroke-width:2.8" id="rect4176" d="M 24 4 C 12.920008 4 4 12.920008 4 24 L 5 24 L 11 24 C 11 16.798008 16.798008 11 24 11 L 24 4 z M 37 24 C 37 31.201992 31.201992 37 24 37 L 24 44 C 35.079992 44 44 35.079992 44 24 L 37 24 z " transform="matrix(1 0 0 1 384.57143 499.798)"/>
  <path style="stroke-opacity:0.550265;fill:url(#linearGradient4219);stroke-width:2.8" id="rect4181" d="M 24 7 C 14.582008 7 7 14.582008 7 24 C 7 33.417992 14.582008 41 24 41 C 33.417992 41 41 33.417992 41 24 L 34 24 C 34 29.539995 29.539996 34 24 34 C 18.460004 34 14 29.539995 14 24 C 14 18.460005 18.460004 14 24 14 L 24 7 z " transform="matrix(1 0 0 1 384.57143 499.798)"/>
  <path style="fill:url(#linearGradient4265);opacity:0.2;fill-rule:evenodd" id="path4237" d="M 22 15 L 15 22 L 17.679688 32 L 16.039062 32.976562 L 16 33 L 24 41 L 26.800781 43.800781 C 35.629889 42.573458 42.573458 35.629889 43.800781 26.800781 L 41 24 L 37 24 L 36 24 C 36 20.402991 34.424754 17.195729 31.933594 15 L 22 15 z M 24 17 C 27.878 17 31 20.122 31 24 C 31 27.878 27.878 31 24 31 C 20.122 31 17 27.878 17 24 C 17 20.122 20.122 17 24 17 z " transform="matrix(1 0 0 1 384.57143 499.798)"/>
  <path style="stroke-opacity:0.550265;fill:url(#linearGradient4227);stroke-width:2.8" id="rect4197" d="M 24 12 C 17.352 12 12 17.352 12 24 C 12 30.648 17.352 36 24 36 C 30.648 36 36 30.648 36 24 C 36 17.352 30.648 12 24 12 z M 24 17 C 27.878 17 31 20.122 31 24 C 31 27.878 27.878 31 24 31 C 20.122 31 17 27.878 17 24 C 17 20.122 20.122 17 24 17 z " transform="matrix(1 0 0 1 384.57143 499.798)"/>
  <path style="stroke-opacity:0.550265;fill-opacity:0.117647;stroke-width:2.8" id="path4184" d="M 4.0253906 23 C 4.0091961 23.331609 4 23.664236 4 24 L 5 24 L 7 24 L 7 23 L 5 23 L 4.0253906 23 z M 43.974609 24 C 43.456395 34.611263 34.744226 43 24 43 L 24 44 C 35.079992 44 44 35.079992 44 24 L 43.974609 24 z " transform="matrix(1 0 0 1 384.57143 499.798)"/>
  <path style="stroke-opacity:0.550265;fill-opacity:0.117647;stroke-width:2.8" id="path4186" d="M 7 24 C 7 33.417992 14.582008 41 24 41 C 33.417992 41 41 33.417992 41 24 L 40.949219 24 C 40.431855 32.945983 33.080119 40 24 40 C 14.921042 40 7.5828628 32.944531 7.0644531 24 L 7 24 z " transform="matrix(1 0 0 1 384.57143 499.798)"/>
 </g>
</svg>

<svg width="48" xmlns="http://www.w3.org/2000/svg" height="48">
 <defs>
  <linearGradient id="a" y1="41" y2="7" x2="0" gradientUnits="userSpaceOnUse">
   <stop stop-color="#728790"/>
   <stop offset="1" stop-color="#85969e"/>
  </linearGradient>
  <linearGradient id="b" y1="36" y2="12" x2="0" gradientUnits="userSpaceOnUse">
   <stop stop-color="#06a370"/>
   <stop offset="1" stop-color="#22d1b0"/>
  </linearGradient>
  <linearGradient id="c" y1="44" y2="4" x2="0" gradientUnits="userSpaceOnUse">
   <stop stop-color="#2a2c2f"/>
   <stop offset="1" stop-color="#424649"/>
  </linearGradient>
  <linearGradient id="d" y1="15" x1="15" y2="44" x2="44" gradientUnits="userSpaceOnUse">
   <stop stop-color="#020303"/>
   <stop offset="1" stop-color="#424649" stop-opacity="0"/>
  </linearGradient>
 </defs>
 <g stroke-opacity=".55" stroke-width="2.8">
  <path fill="url(#c)" d="m24 4c-11.08 0-20 8.92-20 20h7c0-7.202 5.798-13 13-13zm13 20c0 7.202-5.798 13-13 13v7c11.08 0 20-8.92 20-20z"/>
  <path fill="url(#a)" d="m24 7c-9.418 0-17 7.582-17 17 0 9.418 7.582 17 17 17 9.418 0 17-7.582 17-17h-7c0 5.54-4.46 10-10 10-5.54 0-10-4.46-10-10 0-5.54 4.46-10 10-10z"/>
 </g>
 <path opacity=".2" fill="url(#d)" fill-rule="evenodd" d="m22 15l-7 7 2.68 10-1.68 1 10.801 10.801c8.829-1.227 15.773-8.171 17-17l-2.801-2.801h-5c0-3.597-1.575-6.804-4.066-9zm2 2c3.878 0 7 3.122 7 7 0 3.878-3.122 7-7 7-3.878 0-7-3.122-7-7 0-3.878 3.122-7 7-7"/>
 <g stroke-opacity=".55" stroke-width="2.8">
  <path fill="url(#b)" d="m24 12c-6.648 0-12 5.352-12 12 0 6.648 5.352 12 12 12 6.648 0 12-5.352 12-12 0-6.648-5.352-12-12-12m0 5c3.878 0 7 3.122 7 7 0 3.878-3.122 7-7 7-3.878 0-7-3.122-7-7 0-3.878 3.122-7 7-7"/>
  <g fill-opacity=".118">
   <path d="m4.03 23c-.016.332-.025.664-.025 1h3v-1h-2zm39.949 1c-.518 10.611-9.23 19-19.975 19v1c11.08 0 20-8.92 20-20z"/>
   <path d="m7 24c0 9.418 7.582 17 17 17 9.418 0 17-7.582 17-17h-.051c-.517 8.946-7.869 16-16.949 16-9.08 0-16.417-7.06-16.936-16z"/>
  </g>
 </g>
</svg>
